static/img/kroki/efa199212fdffaeb30d04884ce7d4586.svg

<?xml version="1.0" encoding="us-ascii" standalone="no"?><svg xmlns="http://www.w3.org/2000/svg" xmlns:xlink="http://www.w3.org/1999/xlink" contentStyleType="text/css" height="767px" preserveAspectRatio="none" style="width:396px;height:767px;" version="1.1" viewBox="0 0 396 767" width="396px" zoomAndPan="magnify"><defs/><g><!--class aws_athena_data_catalog--><g id="elem_aws_athena_data_catalog"><rect codeLine="22" fill="#3D176E" height="126.6797" id="aws_athena_data_catalog" rx="2.5" ry="2.5" style="stroke:#000D19;stroke-width:0.5;" width="382" x="7" y="633.84"/><ellipse cx="80.75" cy="653.7345" fill="#ADD1B2" rx="11" ry="11" style="stroke:#181818;stroke-width:1.0;"/><path d="M83.7188,659.3752 Q83.1406,659.672 82.5,659.8127 Q81.8594,659.9689 81.1563,659.9689 Q78.6563,659.9689 77.3281,658.3283 Q76.0156,656.672 76.0156,653.547 Q76.0156,650.422 77.3281,648.7658 Q78.6563,647.1095 81.1563,647.1095 Q81.8594,647.1095 82.5,647.2658 Q83.1563,647.422 83.7188,647.7189 L83.7188,650.4377 Q83.0938,649.8595 82.5,649.5939 Q81.9063,649.3127 81.2813,649.3127 Q79.9375,649.3127 79.25,650.3908 Q78.5625,651.4533 78.5625,653.547 Q78.5625,655.6408 79.25,656.7189 Q79.9375,657.7814 81.2813,657.7814 Q81.9063,657.7814 82.5,657.5158 Q83.0938,657.2345 83.7188,656.6564 L83.7188,659.3752 Z " fill="#000000"/><text fill="#D9B8FF" font-family="Helvetica" font-size="17" lengthAdjust="spacing" textLength="216" x="106.25" y="659.6198">aws_athena_data_catalog</text><line style="stroke:#000D19;stroke-width:0.5;" x1="8" x2="388" y1="673.6291" y2="673.6291"/><text fill="#D9B8FF" font-family="sans-serif" font-size="14" font-weight="bold" lengthAdjust="spacing" textLength="189" x="18" y="695.6242">datacatalog_parameters</text><text fill="#D9B8FF" font-family="sans-serif" font-size="14" lengthAdjust="spacing" textLength="171" x="207" y="695.6242">: dictionary[string, string]</text><text fill="#D9B8FF" font-family="sans-serif" font-size="14" font-weight="bold" lengthAdjust="spacing" textLength="133" x="18" y="721.9211">datacatalog_type</text><text fill="#D9B8FF" font-family="sans-serif" font-size="14" lengthAdjust="spacing" textLength="48" x="151" y="721.9211">: string</text><text fill="#D9B8FF" font-family="sans-serif" font-size="14" font-weight="bold" lengthAdjust="spacing" textLength="89" x="18" y="748.2179">description</text><text fill="#D9B8FF" font-family="sans-serif" font-size="14" lengthAdjust="spacing" textLength="48" x="107" y="748.2179">: string</text></g><!--class aws_resource--><g id="elem_aws_resource"><rect codeLine="27" fill="#3D176E" height="74.0859" id="aws_resource" rx="2.5" ry="2.5" style="stroke:#000D19;stroke-width:0.5;" width="155" x="120.5" y="438.75"/><ellipse cx="135.5" cy="458.6445" fill="#ADD1B2" rx="11" ry="11" style="stroke:#181818;stroke-width:1.0;"/><path d="M138.4688,464.2852 Q137.8906,464.582 137.25,464.7227 Q136.6094,464.8789 135.9063,464.8789 Q133.4063,464.8789 132.0781,463.2383 Q130.7656,461.582 130.7656,458.457 Q130.7656,455.332 132.0781,453.6758 Q133.4063,452.0195 135.9063,452.0195 Q136.6094,452.0195 137.25,452.1758 Q137.9063,452.332 138.4688,452.6289 L138.4688,455.3477 Q137.8438,454.7695 137.25,454.5039 Q136.6563,454.2227 136.0313,454.2227 Q134.6875,454.2227 134,455.3008 Q133.3125,456.3633 133.3125,458.457 Q133.3125,460.5508 134,461.6289 Q134.6875,462.6914 136.0313,462.6914 Q136.6563,462.6914 137.25,462.4258 Q137.8438,462.1445 138.4688,461.5664 L138.4688,464.2852 Z " fill="#000000"/><text fill="#D9B8FF" font-family="Helvetica" font-size="17" lengthAdjust="spacing" textLength="113" x="154.5" y="464.5298">aws_resource</text><line style="stroke:#000D19;stroke-width:0.5;" x1="121.5" x2="274.5" y1="478.5391" y2="478.5391"/><text fill="#D9B8FF" font-family="sans-serif" font-size="14" font-weight="bold" lengthAdjust="spacing" textLength="26" x="131.5" y="500.5342">arn</text><text fill="#D9B8FF" font-family="sans-serif" font-size="14" lengthAdjust="spacing" textLength="48" x="157.5" y="500.5342">: string</text></g><!--class resource--><g id="elem_resource"><rect codeLine="30" fill="#3D176E" height="310.7578" id="resource" rx="2.5" ry="2.5" style="stroke:#000D19;stroke-width:0.5;" width="227" x="84.5" y="7"/><ellipse cx="153.25" cy="26.8945" fill="#ADD1B2" rx="11" ry="11" style="stroke:#181818;stroke-width:1.0;"/><path d="M156.2188,32.5352 Q155.6406,32.832 155,32.9727 Q154.3594,33.1289 153.6563,33.1289 Q151.1563,33.1289 149.8281,31.4883 Q148.5156,29.832 148.5156,26.707 Q148.5156,23.582 149.8281,21.9258 Q151.1563,20.2695 153.6563,20.2695 Q154.3594,20.2695 155,20.4258 Q155.6563,20.582 156.2188,20.8789 L156.2188,23.5977 Q155.5938,23.0195 155,22.7539 Q154.4063,22.4727 153.7813,22.4727 Q152.4375,22.4727 151.75,23.5508 Q151.0625,24.6133 151.0625,26.707 Q151.0625,28.8008 151.75,29.8789 Q152.4375,30.9414 153.7813,30.9414 Q154.4063,30.9414 155,30.6758 Q155.5938,30.3945 156.2188,29.8164 L156.2188,32.5352 Z " fill="#000000"/><text fill="#D9B8FF" font-family="Helvetica" font-size="17" lengthAdjust="spacing" textLength="71" x="178.75" y="32.7798">resource</text><line style="stroke:#000D19;stroke-width:0.5;" x1="85.5" x2="310.5" y1="46.7891" y2="46.7891"/><text fill="#D9B8FF" font-family="sans-serif" font-size="14" font-weight="bold" lengthAdjust="spacing" textLength="29" x="95.5" y="68.7842">age</text><text fill="#D9B8FF" font-family="sans-serif" font-size="14" lengthAdjust="spacing" textLength="66" x="124.5" y="68.7842">: duration</text><text fill="#D9B8FF" font-family="sans-serif" font-size="14" font-weight="bold" lengthAdjust="spacing" textLength="43" x="95.5" y="95.0811">atime</text><text fill="#D9B8FF" font-family="sans-serif" font-size="14" lengthAdjust="spacing" textLength="70" x="138.5" y="95.0811">: datetime</text><text fill="#D9B8FF" font-family="sans-serif" font-size="14" font-weight="bold" lengthAdjust="spacing" textLength="43" x="95.5" y="121.3779">ctime</text><text fill="#D9B8FF" font-family="sans-serif" font-size="14" lengthAdjust="spacing" textLength="70" x="138.5" y="121.3779">: datetime</text><text fill="#D9B8FF" font-family="sans-serif" font-size="14" font-weight="bold" lengthAdjust="spacing" textLength="14" x="95.5" y="147.6748">id</text><text fill="#D9B8FF" font-family="sans-serif" font-size="14" lengthAdjust="spacing" textLength="48" x="109.5" y="147.6748">: string</text><text fill="#D9B8FF" font-family="sans-serif" font-size="14" font-weight="bold" lengthAdjust="spacing" textLength="33" x="95.5" y="173.9717">kind</text><text fill="#D9B8FF" font-family="sans-serif" font-size="14" lengthAdjust="spacing" textLength="48" x="128.5" y="173.9717">: string</text><text fill="#D9B8FF" font-family="sans-serif" font-size="14" font-weight="bold" lengthAdjust="spacing" textLength="90" x="95.5" y="200.2686">last_access</text><text fill="#D9B8FF" font-family="sans-serif" font-size="14" lengthAdjust="spacing" textLength="66" x="185.5" y="200.2686">: duration</text><text fill="#D9B8FF" font-family="sans-serif" font-size="14" font-weight="bold" lengthAdjust="spacing" textLength="90" x="95.5" y="226.5654">last_update</text><text fill="#D9B8FF" font-family="sans-serif" font-size="14" lengthAdjust="spacing" textLength="66" x="185.5" y="226.5654">: duration</text><text fill="#D9B8FF" font-family="sans-serif" font-size="14" font-weight="bold" lengthAdjust="spacing" textLength="48" x="95.5" y="252.8623">mtime</text><text fill="#D9B8FF" font-family="sans-serif" font-size="14" lengthAdjust="spacing" textLength="70" x="143.5" y="252.8623">: datetime</text><text fill="#D9B8FF" font-family="sans-serif" font-size="14" font-weight="bold" lengthAdjust="spacing" textLength="43" x="95.5" y="279.1592">name</text><text fill="#D9B8FF" font-family="sans-serif" font-size="14" lengthAdjust="spacing" textLength="48" x="138.5" y="279.1592">: string</text><text fill="#D9B8FF" font-family="sans-serif" font-size="14" font-weight="bold" lengthAdjust="spacing" textLength="34" x="95.5" y="305.4561">tags</text><text fill="#D9B8FF" font-family="sans-serif" font-size="14" lengthAdjust="spacing" textLength="171" x="129.5" y="305.4561">: dictionary[string, string]</text></g><!--reverse link aws_resource to aws_athena_data_catalog--><g id="link_aws_resource_aws_athena_data_catalog"><path codeLine="42" d="M198,533.86 C198,564.49 198,602.28 198,633.69 " fill="none" id="aws_resource-backto-aws_athena_data_catalog" style="stroke:#FFAF37;stroke-width:2.0;"/><polygon fill="none" points="191,534.02,198,514.02,205,534.02,191,534.02" style="stroke:#FFAF37;stroke-width:2.0;"/></g><!--reverse link resource to aws_resource--><g id="link_resource_aws_resource"><path codeLine="43" d="M198,338.97 C198,376.78 198,413 198,438.51 " fill="none" id="resource-backto-aws_resource" style="stroke:#FFAF37;stroke-width:2.0;"/><polygon fill="none" points="191,339.17,198,319.17,205,339.17,191,339.17" style="stroke:#FFAF37;stroke-width:2.0;"/></g><!--SRC=[XPFBJiCm44Nt_GfBx2egjLHGYjX09GIR2W4xXAAfFKcj9dOqdb2LnxyJ9nGvZz9D7lSUprnFuhLMA33BUISop5P8Rk0sskH0a8aR8hjTsDIIE8bZYAUpjdbd3Hy5bf2XkCVq7LbBQ1ClQoqt1fqJPu5r2tAJa2sCgiipWN6bXOO3Qf62SpVCf5S5On16pLUNSTmcsqLFfceoky0EPaaX_IBZyLXDvctaQAj_z_r7FEiF59DmQ4lBs8dPQL5H_wRqH12oiz6zVp3Z8oYbJIBE0-sfpaG6gQ4_hq7PhQTZI5tOnZ4IMjxbkEZi2kUNAfxrmW-7OEad9s3h8k0r6eWKC4IolAGs4P-3uT0Bl-zHLHRBgcuul19AIzRM0ErUNVd7cEHKrFUtrZAVm2-eNM-YawHplphGluCqXCuM9B6A0DI7DP6awg0A0b_LAwopMWD6_rngiaVJgX6j75vJA7jn15AM1whLeNAAtDTgELbF7mDPSmWCoR4nVWyQixZ-6er6XpxMe0VRIpy0]--></g></svg>

<svg xmlns="http://www.w3.org/2000/svg" width="396" height="767" preserveAspectRatio="none" style="width:396px;height:767px"><rect width="382" height="126.68" x="7" y="633.84" fill="#3D176E" rx="2.5" ry="2.5" style="stroke:#000d19;stroke-width:.5"/><circle cx="80.75" cy="653.735" r="11" fill="#ADD1B2" style="stroke:#181818;stroke-width:1"/><path d="M83.719 659.375q-.578.297-1.219.438-.64.156-1.344.156-2.5 0-3.828-1.64-1.312-1.657-1.312-4.782t1.312-4.781q1.328-1.656 3.828-1.656.703 0 1.344.156.656.156 1.219.453v2.719q-.625-.578-1.219-.844-.594-.281-1.219-.281-1.344 0-2.031 1.078-.688 1.062-.688 3.156 0 2.094.688 3.172.688 1.062 2.031 1.062.625 0 1.219-.265.594-.281 1.219-.86v2.72Z"/><text x="106.25" y="659.62" fill="#D9B8FF" font-family="Helvetica" font-size="17" textLength="216">aws_athena_data_catalog</text><path d="M8 673.629h380" style="stroke:#000d19;stroke-width:.5"/><text x="18" y="695.624" fill="#D9B8FF" font-family="sans-serif" font-size="14" font-weight="bold" textLength="189">datacatalog_parameters</text><text x="207" y="695.624" fill="#D9B8FF" font-family="sans-serif" font-size="14" textLength="171">: dictionary[string, string]</text><text x="18" y="721.921" fill="#D9B8FF" font-family="sans-serif" font-size="14" font-weight="bold" textLength="133">datacatalog_type</text><text x="151" y="721.921" fill="#D9B8FF" font-family="sans-serif" font-size="14" textLength="48">: string</text><text x="18" y="748.218" fill="#D9B8FF" font-family="sans-serif" font-size="14" font-weight="bold" textLength="89">description</text><text x="107" y="748.218" fill="#D9B8FF" font-family="sans-serif" font-size="14" textLength="48">: string</text><rect width="155" height="74.086" x="120.5" y="438.75" fill="#3D176E" rx="2.5" ry="2.5" style="stroke:#000d19;stroke-width:.5"/><circle cx="135.5" cy="458.644" r="11" fill="#ADD1B2" style="stroke:#181818;stroke-width:1"/><path d="M138.469 464.285q-.578.297-1.219.438-.64.156-1.344.156-2.5 0-3.828-1.64-1.312-1.657-1.312-4.782t1.312-4.781q1.328-1.656 3.828-1.656.703 0 1.344.156.656.156 1.219.453v2.719q-.625-.579-1.219-.844-.594-.281-1.219-.281-1.344 0-2.031 1.078-.688 1.062-.688 3.156 0 2.094.688 3.172.688 1.062 2.031 1.062.625 0 1.219-.265.594-.281 1.219-.86v2.72Z"/><text x="154.5" y="464.53" fill="#D9B8FF" font-family="Helvetica" font-size="17" textLength="113">aws_resource</text><path d="M121.5 478.539h153" style="stroke:#000d19;stroke-width:.5"/><text x="131.5" y="500.534" fill="#D9B8FF" font-family="sans-serif" font-size="14" font-weight="bold" textLength="26">arn</text><text x="157.5" y="500.534" fill="#D9B8FF" font-family="sans-serif" font-size="14" textLength="48">: string</text><rect width="227" height="310.758" x="84.5" y="7" fill="#3D176E" rx="2.5" ry="2.5" style="stroke:#000d19;stroke-width:.5"/><circle cx="153.25" cy="26.895" r="11" fill="#ADD1B2" style="stroke:#181818;stroke-width:1"/><path d="M156.219 32.535q-.578.297-1.219.438-.64.156-1.344.156-2.5 0-3.828-1.64-1.312-1.657-1.312-4.782t1.312-4.781q1.328-1.656 3.828-1.656.703 0 1.344.156.656.156 1.219.453v2.719q-.625-.578-1.219-.844-.594-.281-1.219-.281-1.344 0-2.031 1.078-.688 1.062-.688 3.156 0 2.094.688 3.172.688 1.062 2.031 1.062.625 0 1.219-.265.594-.281 1.219-.86v2.72Z"/><text x="178.75" y="32.78" fill="#D9B8FF" font-family="Helvetica" font-size="17" textLength="71">resource</text><path d="M85.5 46.789h225" style="stroke:#000d19;stroke-width:.5"/><text x="95.5" y="68.784" fill="#D9B8FF" font-family="sans-serif" font-size="14" font-weight="bold" textLength="29">age</text><text x="124.5" y="68.784" fill="#D9B8FF" font-family="sans-serif" font-size="14" textLength="66">: duration</text><text x="95.5" y="95.081" fill="#D9B8FF" font-family="sans-serif" font-size="14" font-weight="bold" textLength="43">atime</text><text x="138.5" y="95.081" fill="#D9B8FF" font-family="sans-serif" font-size="14" textLength="70">: datetime</text><text x="95.5" y="121.378" fill="#D9B8FF" font-family="sans-serif" font-size="14" font-weight="bold" textLength="43">ctime</text><text x="138.5" y="121.378" fill="#D9B8FF" font-family="sans-serif" font-size="14" textLength="70">: datetime</text><text x="95.5" y="147.675" fill="#D9B8FF" font-family="sans-serif" font-size="14" font-weight="bold" textLength="14">id</text><text x="109.5" y="147.675" fill="#D9B8FF" font-family="sans-serif" font-size="14" textLength="48">: string</text><text x="95.5" y="173.972" fill="#D9B8FF" font-family="sans-serif" font-size="14" font-weight="bold" textLength="33">kind</text><text x="128.5" y="173.972" fill="#D9B8FF" font-family="sans-serif" font-size="14" textLength="48">: string</text><text x="95.5" y="200.269" fill="#D9B8FF" font-family="sans-serif" font-size="14" font-weight="bold" textLength="90">last_access</text><text x="185.5" y="200.269" fill="#D9B8FF" font-family="sans-serif" font-size="14" textLength="66">: duration</text><text x="95.5" y="226.565" fill="#D9B8FF" font-family="sans-serif" font-size="14" font-weight="bold" textLength="90">last_update</text><text x="185.5" y="226.565" fill="#D9B8FF" font-family="sans-serif" font-size="14" textLength="66">: duration</text><text x="95.5" y="252.862" fill="#D9B8FF" font-family="sans-serif" font-size="14" font-weight="bold" textLength="48">mtime</text><text x="143.5" y="252.862" fill="#D9B8FF" font-family="sans-serif" font-size="14" textLength="70">: datetime</text><text x="95.5" y="279.159" fill="#D9B8FF" font-family="sans-serif" font-size="14" font-weight="bold" textLength="43">name</text><text x="138.5" y="279.159" fill="#D9B8FF" font-family="sans-serif" font-size="14" textLength="48">: string</text><text x="95.5" y="305.456" fill="#D9B8FF" font-family="sans-serif" font-size="14" font-weight="bold" textLength="34">tags</text><text x="129.5" y="305.456" fill="#D9B8FF" font-family="sans-serif" font-size="14" textLength="171">: dictionary[string, string]</text><path fill="none" d="M198 533.86v99.83m-7-99.67 7-20 7 20h-14zm7-195.05v99.54m-7-99.34 7-20 7 20h-14z" style="stroke:#ffaf37;stroke-width:2"/></svg>
